!!!COM: Palestrina, Giovanni Perluigi da
!!!OPR: In minoribus duplicibus
!!!OTL: Kyrie
**kern	**kern	**kern	**kern
*Ibass	*Itenor	*Icalto	*Icant
!Bassus	!Tenor	!Altus	!Cantus
*clefF4	*clefGv2	*clefG2	*clefG2
*k[]	*k[]	*k[]	*k[]
*?:X	*?:X	*?:X	*?:X
*M4/2	*M4/2	*M4/2	*M4/2
=1	=1	=1	=1
0r	0r	1g	0r
.	.	1g	.
=2	=2	=2	=2
0r	0r	1f#	1r
.	.	1g	1dd
=3	=3	=3	=3
0r	0r	1b-	1dd
.	.	2.a	1cc#
.	.	4g	.
=4	=4	=4	=4
0r	0r	2f	1dd
.	.	2g	.
.	.	2d	1ff
.	.	[2a	.
=5	=5	=5	=5
0r	0r	4a]	2ee
.	.	4g	.
.	.	2f	1dd
.	.	1e	.
.	.	.	2cc#
=6	=6	=6	=6
1G	0r	0d	2.dd
.	.	.	4cc
1G	.	.	2b-
.	.	.	2g
=7	=7	=7	=7
1F#	1r	2r	1a
.	.	2a	.
1G	1d	2b-	1g
.	.	[2g	.
=8	=8	=8	=8
1B-	1d	4g]	0r
.	.	4f	.
.	.	4f	.
.	.	8e	.
.	.	8d	.
2.A	1c#	2e	.
.	.	2a	.
4G	.	.	.
=9	=9	=9	=9
2F#	1d	2a	1r
2G	.	2b-	.
2D	1f	[1a	2r
[2A	.	.	2a
=10	=10	=10	=10
4A]	2e	1a]	2cc
4G	.	.	.
2F	1d	.	2dd
1E	.	1r	2.g
.	2c#	.	.
.	.	.	4a
=11	=11	=11	=11
1D	2.d	2r	2b-
.	.	2d	2a
.	4c	.	.
1r	2B-	2f	1dd
.	2G	2g	.
=12	=12	=12	=12
0r	2A	2e	2cc
.	2A	2a	2ff
.	2c	2g	2ee
.	2d	2f	[2dd
=13	=13	=13	=13
0r	1G	1b-	4dd]
.	.	.	4cc
.	.	.	4dd
.	.	.	4ee
.	2A	2a	2ff
.	[2c	[2g	[2ee
=14	=14	=14	=14
0r	2c]	4g]	2ee]
.	.	4f	.
.	2B-	4e	1dd
.	.	4d	.
.	[1A	1e	.
.	.	.	2cc#
=15	=15	=15	=15
1D	1A]	2r	2dd
.	.	2d	2.ff
2F	1r	2c	.
.	.	.	4ee
2G	.	2B-	2dd
=16	=16	=16	=16
1C	1r	1e-	4cc
.	.	.	4b-
.	.	.	4a
.	.	.	4g
2D	1A	2d	2.f
[2F	.	4c	.
.	.	4B-	4g
=17	=17	=17	=17
2F]	1c	4A	4a
.	.	4G	4b-
2E-	.	1g	2cc
1D	1d	.	2b-
.	.	2f	2a
=18	=18	=18	=18
1C	1G	4e-	2.cc
.	.	4f	.
.	.	4g	.
.	.	4e-	4b-
[1F	2A	1f	4a
.	.	.	4g
.	[2c	.	[2a
=19	=19	=19	=19
2F]	2c]	1.d	2a]
2G	2B-	.	2g
2D	2A	.	2f#
2E-	2G	2c	[2g
=20	=20	=20	=20
1D	1A	1d	2g]
.	.	.	2f#
1G	1G	2r	2g
.	.	2d	2dd
=21	=21	=21	=21
0r	0r	2f	2cc
.	.	2g	2b-
.	.	1c	4ee-
.	.	.	4dd
.	.	.	4cc
.	.	.	4b-
=22	=22	=22	=22
1D	2r	2d	1a
.	2d	2.f	.
2F	2c	.	2a
.	.	4e-	.
2G	2B-	2d	2dd
=23	=23	=23	=23
1C	4e-	2g	4cc
.	4d	.	4b-
.	4c	2.a	4a
.	4B-	.	4g
2D	2.A	.	2f
.	.	4g	.
[2F	.	4f	[2a
.	4G	4e-	.
=24	=24	=24	=24
2F]	2F	4d	2a]
.	.	8c	.
.	.	8B-	.
2E-	2G	2c	2g
2D	2A	2d	2f
2C	[2c	2e-	[2a
=25	=25	=25	=25
0D	2c]	[0d	2a]
.	2B-	.	1g
.	1A	.	.
.	.	.	2f#
=26	=26	=26	=26
0G	0G	0d]	0g
=27	=27	=27	=27
2.D	0d	0r	0r
4E	.	.	.
2F	.	.	.
2G	.	.	.
=28	=28	=28	=28
2F	1d	0r	0r
4E	.	.	.
4D	.	.	.
1E	1c	.	.
=29	=29	=29	=29
2.D	1.d	0r	0r
4E	.	.	.
4F	.	.	.
4G	.	.	.
[2A	4c	.	.
.	4B-	.	.
=30	=30	=30	=30
2A]	2c	0r	0r
2F	2d	.	.
2G	2B-	.	.
2E-	2c	.	.
=31	=31	=31	=31
2D	0d	1r	1r
2.G	.	.	.
.	.	2.d	[1dd
4A	.	.	.
[2B-	.	.	.
.	.	4e	.
=32	=32	=32	=32
2B-]	0r	2f	1dd]
2G	.	2g	.
1B-	.	2f	1dd
.	.	4e	.
.	.	4d	.
=33	=33	=33	=33
1A	0r	1e	1cc
2B-	.	2.d	[1dd
2G	.	.	.
.	.	4e	.
=34	=34	=34	=34
2.F	0r	4f	2dd]
.	.	4g	.
.	.	1a	4cc
4G	.	.	4b-
2A	.	.	2cc
2B-	.	2f	2dd
=35	=35	=35	=35
2G	1r	2g	2b-
2A	.	2e	2cc
2.D	[1d	2.f	2dd
.	.	.	[2a
4E	.	4g	.
=36	=36	=36	=36
2F	1d]	2a	2a]
2G	.	2b-	2g
2F	1d	2a	1a
4E	.	4g	.
4D	.	4f	.
=37	=37	=37	=37
1A	1c	2e	1.cc
.	.	2f	.
1G	[1d	1g	.
.	.	.	2b-
=38	=38	=38	=38
1D	2d]	2f	2.a
.	4c	4e	.
.	4B-	4d	4g
1r	2c	2e	1a
.	2d	2f	.
=39	=39	=39	=39
1r	2B-	2d	1g
.	2c	2e	.
1D	2d	2.f	2r
.	[2A	.	2dd
.	.	4e	.
=40	=40	=40	=40
2F	2A]	2d	2dd
2E	2G	2c#	2ee
1D	1A	2d	[1ff
.	.	2f	.
=41	=41	=41	=41
0C	1.c	2g	2ff]
.	.	2.a	4ee
.	.	.	4dd
.	.	.	1ee
.	.	4g	.
.	2B-	[2g	.
=42	=42	=42	=42
0D	2.A	2g]	1dd
.	.	4f#	.
.	4G	4e	.
.	1A	1f#	2r
.	.	.	2dd
=43	=43	=43	=43
2.G	[0G	1.g	2dd
.	.	.	2dd
4F	.	.	.
2E-	.	.	2ee-
2BB-	.	2f	2dd
=44	=44	=44	=44
0C	1G_	0e-	0cc
.	1G_	.	.
=45	=45	=45	=45
0G	0G]	0d	0b
=46	=46	=46	=46
0r	0r	2r	1g
.	.	1g	.
.	.	.	1dd
.	.	2f	.
=47	=47	=47	=47
0r	0r	2d	1dd
.	.	2f	.
.	.	1e	1cc#
=48	=48	=48	=48
2r	0r	2.d	2dd
1d	.	.	1ff
.	.	4e	.
.	.	4f	.
.	.	4g	.
2c	.	[2a	2ee
=49	=49	=49	=49
2A	0r	2a]	2cc
2c	.	1g	2ee
2B-	.	.	2dd
[2d	.	2f	[2ff
=50	=50	=50	=50
4d]	0r	2d	4ff]
4c	.	.	4ee
4B-	.	2f	1dd
4A	.	.	.
2G	.	1e	.
2A	.	.	2cc#
=51	=51	=51	=51
2B-	1G	2d	0dd
1G	.	1b-	.
.	1d	.	.
2F	.	2a	.
=52	=52	=52	=52
2D	1d	4f	0r
.	.	4g	.
2F	.	4a	.
.	.	4f	.
1E	1c#	2.g	.
.	.	4a	.
=53	=53	=53	=53
1D	2d	2b-	2r
.	1f	2a	1dd
[1A	.	2.a	.
.	2e	.	2cc
.	.	8g	.
.	.	8f	.
=54	=54	=54	=54
1A]	2c	1e	2a
.	2e	.	2cc
1r	2d	2.f	2b-
.	[2f	.	[2a
.	.	4g	.
=55	=55	=55	=55
1r	4f]	0a	4a]
.	4e	.	4g
.	1d	.	2f
1A	.	.	1e
.	2c#	.	.
=56	=56	=56	=56
1B-	4d	1r	2d
.	4e	.	.
.	4f	.	1dd
.	4d	.	.
1A	1e	1a	.
.	.	.	2cc#
=57	=57	=57	=57
2G	2r	2b-	1dd
2F	2d	2a	.
1G	2e-	2.g	1r
.	2d	.	.
.	.	4f	.
=58	=58	=58	=58
2A	2c	2e	0r
2G	2B-	2g	.
2F	2A	2a	.
2E	2c	[2g	.
=59	=59	=59	=59
1D	1d	2g]	1a
.	.	2f	.
1r	2G	2d	2b-
.	2A	2f	2a
=60	=60	=60	=60
1r	2c	2e	2g
.	2d	1d	2f
2r	1A	.	2e
2A	.	2c#	2ee
=61	=61	=61	=61
2d	0r	2d	2ff
2c	.	2a	2ee
2B-	.	2b-	2dd
2F	.	2a	2cc
=62	=62	=62	=62
1G	2r	1.g	2.b-
.	2d	.	.
.	.	.	4a
1r	2e-	.	2g
.	2d	2f	[2a
=63	=63	=63	=63
1r	2c	2e	4a]
.	.	.	4g
.	2B-	2g	1g
2r	2c	1a	.
2D	2d	.	2f#
=64	=64	=64	=64
2.E-	1G	1g	2g
.	.	.	2b-
4D	.	.	.
2C	2r	[1g	2ee-
2BB-	2d	.	2dd
=65	=65	=65	=65
2C	2e-	2g]	2cc
2D	2d	2f	2b-
2F	2c	2f	2a
2G	2B-	2d	2g
=66	=66	=66	=66
2.F	2A	0f	4cc
.	.	.	4b-
.	2c	.	4a
4E-	.	.	4g
1D	2.d	.	4f
.	.	.	4g
.	.	.	[2a
.	4c	.	.
=67	=67	=67	=67
2E-	2B-	1e-	4a]
.	.	.	4g
2C	2c	.	1g
1D	1A	1d	.
.	.	.	2f#
=68	=68	=68	=68
0G	1G	2r	1g
.	.	2d	.
.	1r	2e-	2r
.	.	2d	2dd
=69	=69	=69	=69
2r	2r	2c	2ee-
2G	2d	2B-	2dd
2C	2e-	2c	2cc
2D	2d	[2f	2b-
=70	=70	=70	=70
2F	2c	2f]	2a
2G	2B-	2d	2g
2.F	2A	[1f	4cc
.	.	.	4b-
.	2c	.	4a
4E-	.	.	4g
=71	=71	=71	=71
1D	2.d	1f]	4f
.	.	.	4g
.	.	.	2.a
.	4c	.	.
2E-	2B-	1e-	.
.	.	.	4g
2C	2c	.	[2g
=72	=72	=72	=72
1D	1A	1d	2g]
.	.	.	2f#
[1G	[1G	[1d	[1g
=73	=73	=73	=73
1G]	1G]	1d]	1g]
==	==	==	==
*-	*-	*-	*-
!!!CDT: 1525/^1526/-1594/2/2
!!!OCY: Italia
!!!AGN: Mass (Paraphrase)
!!!AST: renaissance, vocal
!!!ASW: Gregorian Mass
!!!PWK: Masses, Book 7
!!!RNB: Cadence finals: C,G,A,D
!!!YOR: Le Opere Complete, v. 23, p. 182
!!!YOO: Rome, Italy: Fratelli Scalera
!!!END: 1992//
!!!EED: John Miller
!!!YEC: Copyright 2000, John Miller
!!!YEN: United States of America
!!!YEM: Rights to all derivative electronic formats reserved.
!!!YEM: Refer to licensing agreement for further details.
!!!YEM: This file must be accompanied by the licensing agreement.
!!!YEM: A copy of the licensing agreement may be found at http://www.music-cog.ohio-state.edu/HumdrumDatabases/Palestrina/license.txt
!!!EMD: converted to Humdrum by Bret Aarden
